symbols/web/fitness_center/materialsymbolsoutlined/fitness_center_wght600grad200_20px.svg

<svg xmlns="http://www.w3.org/2000/svg" height="20" width="20"><path d="m10.854 18.667-1.646-1.646 3-2.979-6.25-6.25-2.979 3-1.646-1.646 1.209-1.208L1.25 6.646l1.771-1.771-1.292-1.292 1.854-1.854 1.292 1.292L6.646 1.25l1.292 1.292 1.208-1.209 1.646 1.646-3 2.979 6.25 6.25 2.979-3 1.646 1.646-1.209 1.208 1.292 1.292-1.771 1.771 1.292 1.292-1.854 1.854-1.292-1.292-1.771 1.771-1.292-1.292Z"/></svg>

<svg xmlns="http://www.w3.org/2000/svg" height="20" width="20"><path d="M10.854 18.667 9.208 17.021 12.208 14.042 5.958 7.792 2.979 10.792 1.333 9.146 2.542 7.938 1.25 6.646 3.021 4.875 1.729 3.583 3.583 1.729 4.875 3.021 6.646 1.25 7.938 2.542 9.146 1.333 10.792 2.979 7.792 5.958 14.042 12.208 17.021 9.208 18.667 10.854 17.458 12.062 18.75 13.354 16.979 15.125 18.271 16.417 16.417 18.271 15.125 16.979 13.354 18.75 12.062 17.458Z"/></svg>
